brandFactory_export/2.Regular/Documento_Archivo Sketch_2Regular.svg

<?xml version="1.0" encoding="UTF-8"?>
<svg width="24px" height="24px" viewBox="0 0 24 24" version="1.1" xmlns="http://www.w3.org/2000/svg" xmlns:xlink="http://www.w3.org/1999/xlink">
    <title>2.Regular/Documento_Archivo Sketch_2Regular</title>
    <g id="Symbols" stroke="none" stroke-width="1" fill="none" fill-rule="evenodd">
        <g id="2.Regular/Documento_Archivo-Sketch_2Regular" fill="#5CB615" fill-rule="nonzero">
            <path d="M19.0840336,22.1647059 C19.2016807,22.1647059 19.312605,22.0504202 19.312605,21.9630252 L19.312605,8.24201681 L16.5798319,8.24201681 C15.3798319,8.24201681 14.3478992,7.84537815 13.5882353,7.09915966 C12.8218487,6.34285714 12.4151261,5.31428571 12.4151261,4.1210084 L12.4151261,1.45882353 L4.6907563,1.45882353 C4.60672269,1.45882353 4.46890756,1.59327731 4.46218487,1.6605042 L4.46218487,21.9630252 C4.46218487,22.0336134 4.57983193,22.1647059 4.6907563,22.1647059 L19.0840336,22.1647059 Z M18.707563,6.78319328 L13.8470588,2.00336134 L13.8470588,4.1210084 C13.8470588,4.91092437 14.102521,5.57647059 14.5865546,6.05042017 C15.0739496,6.52773109 15.7630252,6.78319328 16.5831933,6.78319328 L18.707563,6.78319328 L18.707563,6.78319328 Z M20.6907563,6.91092437 C20.7277311,7.00168067 20.7445378,7.09579832 20.7445378,7.19327731 L20.7445378,21.9596639 C20.7344538,22.8739496 19.994958,23.610084 19.0806723,23.6201681 L4.6907563,23.6201681 C3.80336134,23.6201681 3.02689076,22.8436975 3.02689076,21.9596639 L3.02689076,1.65714286 C3.02689076,0.789915966 3.82016807,0 4.6907563,0 L13.4504202,0 C13.7226891,0 13.9815126,0.104201681 14.1764706,0.295798319 L20.4319328,6.44705882 C20.5663866,6.58151261 20.6403361,6.74285714 20.6907563,6.91092437 Z M15.2319328,12.8638655 L16.2369748,12.8638655 L15.6386555,11.6773109 L15.2319328,12.8638655 Z M14.8319328,14.0268908 L13.7226891,17.2840336 L16.0521008,14.0268908 L14.8319328,14.0268908 L14.8319328,14.0268908 Z M8.98991597,14.0268908 L7.72941176,14.0268908 L10.1193277,17.3378151 L8.98991597,14.0268908 L8.98991597,14.0268908 Z M9.59831933,12.2588235 L10.7546218,10.7831933 L9.09747899,10.7831933 C9.09411765,10.7865546 9.59831933,12.2588235 9.59831933,12.2588235 L9.59831933,12.2588235 Z M14.2235294,12.2655462 L14.7310924,10.7865546 L13.0504202,10.7865546 L14.2235294,12.2655462 Z M10.5932773,12.8638655 L13.2218487,12.8638655 L11.9008403,11.1966387 L10.5932773,12.8638655 Z M13.6184874,14.0268908 L10.2033613,14.0268908 L11.9109244,19.0252118 C11.9109244,19.0285714 13.6184874,14.0268908 13.6184874,14.0268908 L13.6184874,14.0268908 Z M8.17983193,11.6571429 L7.5512605,12.8638655 L8.58991597,12.8638655 L8.17983193,11.6571429 L8.17983193,11.6571429 Z M17.692437,13.1966387 C17.7294118,13.2739496 17.7529412,13.3613445 17.7529412,13.4453782 C17.7529412,13.4521008 17.7495798,13.4588235 17.7462185,13.4689076 C17.7462185,13.492437 17.7361345,13.512605 17.7327731,13.5361345 C17.7226891,13.610084 17.6957983,13.6806723 17.6588235,13.7445378 C17.6487395,13.7579832 17.6521008,13.7747899 17.6420168,13.7882353 L12.3747899,21.1495798 C12.3747899,21.1529412 12.3714286,21.1529412 12.3714286,21.1529412 C12.3243697,21.2168067 12.2638655,21.2705882 12.1932773,21.307563 L12.1428571,21.3310924 C12.0722689,21.3647059 11.9915966,21.3848739 11.9109244,21.3882353 L11.907563,21.3882353 C11.8268908,21.3848739 11.7462185,21.3680672 11.6756303,21.3310924 L11.6252101,21.307563 C11.5546218,21.2672269 11.4941176,21.2168067 11.4470588,21.1529412 L11.4436975,21.1529412 L6.13277311,13.7915966 C6.12268908,13.7781513 6.12605042,13.7613445 6.11932773,13.7478992 C6.07563025,13.6840336 6.0487395,13.610084 6.04201681,13.5327731 C6.03865546,13.512605 6.02857143,13.492437 6.02857143,13.4722689 C6.02857143,13.4621849 6.02521008,13.4554622 6.02521008,13.4487395 C6.02521008,13.3613445 6.0487395,13.2739496 6.08571429,13.1966387 C6.08907563,13.189916 6.08571429,13.1831933 6.08907563,13.1764706 L7.77983193,9.93277311 C7.78319328,9.92268908 7.79663866,9.91932773 7.80336134,9.9092437 C7.85714286,9.81848739 7.93781513,9.74117647 8.03529412,9.69411765 C8.05882353,9.68403361 8.07563025,9.66386555 8.09915966,9.65378151 C8.14957983,9.63697479 8.2,9.63697479 8.25042017,9.63361345 C8.26386555,9.6302521 8.27394958,9.62016807 8.28739496,9.62016807 L15.5344538,9.62016807 C15.5478992,9.62016807 15.5579832,9.6302521 15.5714286,9.6302521 C15.6218487,9.63361345 15.6722689,9.63361345 15.7260504,9.65378151 C15.7529412,9.66386555 15.7697479,9.68403361 15.7932773,9.69411765 C15.8168067,9.70756303 15.8369748,9.7210084 15.8605042,9.73445378 C15.9277311,9.78487395 15.9882353,9.84537815 16.0285714,9.92268908 C16.0319328,9.92605042 16.0386555,9.92941176 16.0420168,9.93613445 L16.0453782,9.94957983 L17.6823529,13.1798319 C17.692437,13.1865546 17.6890756,13.189916 17.692437,13.1966387 L17.692437,13.1966387 Z" id="Documento_Archivo-Sketch_2Regular"></path>
        </g>
    </g>
</svg>

<svg width="24" height="24" viewBox="0 0 24 24" xmlns="http://www.w3.org/2000/svg"><path d="M19.084 22.165c.118 0 .229-.115.229-.202V8.242H16.58c-1.2 0-2.232-.397-2.992-1.143-.766-.756-1.173-1.785-1.173-2.978V1.459H4.691c-.084 0-.222.134-.229.202v20.302c0 .07.118.202.229.202h14.393zm-.376-15.382l-4.86-4.78v2.118c0 .79.255 1.455.739 1.93.487.477 1.176.732 1.996.732h2.125zm1.983.128a.74.74 0 01.054.282V21.96a1.68 1.68 0 01-1.664 1.66H4.69c-.888 0-1.664-.776-1.664-1.66V1.657C3.027.79 3.82 0 4.69 0h8.76c.272 0 .53.104.725.296l6.256 6.151c.134.135.208.296.259.464zm-5.46 5.953h1.006l-.598-1.187-.407 1.187zm-.4 1.163l-1.108 3.257 2.33-3.257h-1.221zm-5.841 0H7.73l2.39 3.31-1.13-3.31zm.608-1.768l1.157-1.476H9.097c-.003.004.501 1.476.501 1.476zm4.626.007l.507-1.48h-1.68l1.173 1.48zm-3.63.598h2.628L11.9 11.197l-1.308 1.667zm3.024 1.163h-3.415l1.708 4.998c0 .004 1.707-4.998 1.707-4.998zm-5.438-2.37l-.629 1.207H8.59l-.41-1.207zm9.512 1.54a.59.59 0 01.06.248c0 .007-.002.014-.006.024 0 .023-.01.044-.013.067a.573.573 0 01-.074.209c-.01.013-.007.03-.017.043l-5.267 7.362c0 .003-.004.003-.004.003a.526.526 0 01-.178.155l-.05.023a.604.604 0 01-.232.057h-.003a.55.55 0 01-.232-.057l-.05-.023a.565.565 0 01-.179-.155h-.003l-5.311-7.361c-.01-.014-.007-.03-.014-.044a.45.45 0 01-.077-.215c-.003-.02-.013-.04-.013-.06 0-.01-.004-.018-.004-.024 0-.088.024-.175.06-.252.004-.007 0-.014.004-.02l1.69-3.244c.004-.01.018-.014.024-.024a.552.552 0 01.232-.215c.024-.01.04-.03.064-.04.05-.017.101-.017.151-.02.014-.004.024-.014.037-.014h7.247c.014 0 .024.01.037.01.05.004.101.004.155.024.027.01.044.03.067.04l.068.04c.067.05.127.111.168.189.003.003.01.006.013.013l.003.014 1.637 3.23c.01.007.007.01.01.017z" fill="#5CB615" fill-rule="nonzero"/></svg>
